X:21204 
T:WREN HORNPIPE, The 
B:DMI.0945
Z:Nordberg/Black
N:If the high |c'| in m.9 is a problem, you can replace 
/ ac'/ with / a2 / or / ab /.
R:hornpipe
%Q:1/4=150
M:C|
L:1/8
K:Am
ed|cBAG AcBA|GEDE G3B|cBAG ABcd|eaag e2de|
cBAG AcBA|GEDE GABd|c2BA GABG|A2AB A2:|
g2|"9"a2a2 ac'ba|gede g3^f|g^fga b2a2|gede d3B|
cBAG AcBA|GEDE GABd|c2BA GABG|A2ABA2:|

%%%

